img/footer/instagram.svg

<svg width="60" height="60" viewBox="0 0 60 60" fill="none" xmlns="http://www.w3.org/2000/svg">
<path d="M24.2578 30C24.2578 33.1714 26.8286 35.7422 30 35.7422C33.1714 35.7422 35.7422 33.1714 35.7422 30C35.7422 26.8286 33.1714 24.2578 30 24.2578C26.8286 24.2578 24.2578 26.8286 24.2578 30Z" fill="#7C7C7C"/>
<path d="M16.571 19.8403C16.8471 19.0923 17.2874 18.4153 17.8596 17.8596C18.4154 17.2874 19.0919 16.847 19.8404 16.571C20.4474 16.3352 21.3593 16.0546 23.0388 15.9781C24.8557 15.8953 25.4004 15.8774 30 15.8774C34.6001 15.8774 35.1448 15.8948 36.9612 15.9777C38.6407 16.0546 39.5531 16.3352 40.1596 16.571C40.9081 16.847 41.5851 17.2874 42.1404 17.8596C42.7126 18.4153 43.1529 19.0919 43.4294 19.8403C43.6652 20.4473 43.9458 21.3596 44.0222 23.0392C44.1051 24.8556 44.1229 25.4003 44.1229 30.0004C44.1229 34.6 44.1051 35.1447 44.0222 36.9616C43.9458 38.6411 43.6652 39.553 43.4294 40.16C43.1529 40.9084 42.713 41.585 42.1408 42.1407C41.5851 42.7129 40.9085 43.1533 40.1601 43.4293C39.5531 43.6655 38.6407 43.9461 36.9612 44.0226C35.1448 44.1054 34.6005 44.1228 30.0005 44.1228C25.3999 44.1228 24.8552 44.1054 23.0392 44.0226C21.3597 43.9461 20.4474 43.6655 19.8404 43.4293C18.338 42.8498 17.1506 41.6624 16.571 40.16C16.3353 39.553 16.0547 38.6411 15.9778 36.9616C15.8949 35.1447 15.8775 34.6 15.8775 30.0004C15.8775 25.4003 15.8949 24.8556 15.9778 23.0392C16.0542 21.3596 16.3348 20.4473 16.571 19.8403ZM30 38.8457C34.8857 38.8457 38.8463 34.8856 38.8463 29.9999C38.8463 25.1142 34.8857 21.1541 30 21.1541C25.1147 21.1541 21.1542 25.1142 21.1542 29.9999C21.1542 34.8856 25.1147 38.8457 30 38.8457ZM20.8044 22.8716C21.9461 22.8716 22.8717 21.946 22.8717 20.8044C22.8717 19.6627 21.9461 18.7371 20.8044 18.7371C19.6628 18.7371 18.7372 19.6627 18.7372 20.8044C18.7376 21.946 19.6628 22.8716 20.8044 22.8716Z" fill="#7C7C7C"/>
<path d="M30 0C46.566 0 60 13.434 60 30C60 46.566 46.566 60 30 60C13.434 60 0 46.566 0 30C0 13.434 13.434 0 30 0ZM12.8773 37.1022C12.9607 38.936 13.2523 40.188 13.678 41.2839C14.5729 43.5979 16.4021 45.4271 18.7161 46.322C19.8116 46.7477 21.064 47.0389 22.8973 47.1227C24.7343 47.2064 25.3212 47.2266 29.9995 47.2266C34.6783 47.2266 35.2647 47.2064 37.1022 47.1227C38.9355 47.0389 40.188 46.7477 41.2834 46.322C42.4333 45.8894 43.4743 45.2115 44.3349 44.3349C45.211 43.4747 45.889 42.4333 46.3216 41.2839C46.7473 40.1884 47.0389 38.936 47.1222 37.1027C47.2069 35.2652 47.2266 34.6783 47.2266 30C47.2266 25.3217 47.2069 24.7348 47.1227 22.8978C47.0393 21.064 46.7482 19.812 46.3225 18.7161C45.8899 17.5667 45.2115 16.5253 44.3349 15.6651C43.4747 14.7885 42.4333 14.1106 41.2839 13.678C40.188 13.2523 38.936 12.9611 37.1022 12.8773C35.2652 12.7936 34.6783 12.7734 30 12.7734C25.3217 12.7734 24.7348 12.7936 22.8978 12.8778C21.064 12.9611 19.812 13.2523 18.7161 13.6775C17.5667 14.1101 16.5253 14.7885 15.6647 15.6651C14.7885 16.5257 14.1101 17.5667 13.678 18.7161C13.2518 19.812 12.9607 21.064 12.8769 22.8978C12.7931 24.7348 12.7734 25.3217 12.7734 30C12.7734 34.6783 12.7931 35.2652 12.8773 37.1022Z" fill="#7C7C7C"/>
</svg>

<svg width="60" height="60" fill="none" xmlns="http://www.w3.org/2000/svg"><path d="M24.258 30a5.742 5.742 0 1 0 11.484 0 5.742 5.742 0 0 0-11.484 0Z" fill="#7C7C7C"/><path d="M16.571 19.84a5.338 5.338 0 0 1 1.289-1.98 5.334 5.334 0 0 1 1.98-1.289c.607-.236 1.52-.516 3.199-.593 1.817-.083 2.361-.1 6.961-.1s5.145.017 6.961.1c1.68.077 2.592.357 3.199.593a5.33 5.33 0 0 1 1.98 1.289 5.34 5.34 0 0 1 1.29 1.98c.235.607.516 1.52.592 3.2.083 1.816.1 2.36.1 6.96s-.017 5.145-.1 6.962c-.076 1.68-.357 2.591-.593 3.198a5.34 5.34 0 0 1-1.288 1.98 5.333 5.333 0 0 1-1.98 1.29c-.608.236-1.52.516-3.2.593-1.816.082-2.36.1-6.96.1-4.601 0-5.146-.018-6.962-.1-1.68-.077-2.592-.358-3.199-.594a5.705 5.705 0 0 1-3.269-3.269c-.236-.607-.516-1.519-.593-3.198-.083-1.817-.1-2.362-.1-6.962s.017-5.144.1-6.96c.076-1.68.357-2.593.593-3.2ZM30 38.846a8.846 8.846 0 1 0 0-17.692A8.846 8.846 0 0 0 21.154 30 8.846 8.846 0 0 0 30 38.846Zm-9.196-15.974a2.067 2.067 0 1 0 0-4.135 2.067 2.067 0 0 0 0 4.135Z" fill="#7C7C7C"/><path d="M30 0c16.566 0 30 13.434 30 30 0 16.566-13.434 30-30 30C13.434 60 0 46.566 0 30 0 13.434 13.434 0 30 0ZM12.877 37.102c.084 1.834.375 3.086.801 4.182a8.808 8.808 0 0 0 5.038 5.038c1.096.426 2.348.717 4.181.8 1.837.084 2.424.105 7.103.105 4.678 0 5.265-.02 7.102-.104 1.834-.084 3.086-.375 4.181-.801a8.44 8.44 0 0 0 3.052-1.987 8.445 8.445 0 0 0 1.987-3.051c.425-1.096.717-2.348.8-4.181.085-1.838.105-2.425.105-7.103s-.02-5.265-.104-7.102c-.084-1.834-.375-3.086-.8-4.182a8.44 8.44 0 0 0-1.988-3.05 8.44 8.44 0 0 0-3.051-1.988c-1.096-.426-2.348-.717-4.182-.8-1.837-.084-2.424-.105-7.102-.105-4.678 0-5.265.02-7.102.105-1.834.083-3.086.374-4.182.8a8.445 8.445 0 0 0-3.051 1.987 8.44 8.44 0 0 0-1.987 3.051c-.426 1.096-.717 2.348-.801 4.182-.084 1.837-.104 2.424-.104 7.102 0 4.678.02 5.265.104 7.102Z" fill="#7C7C7C"/></svg>
